!!!OTL: Stolz gen Stolz.
!!!OTL-incipit: WO GEHST DU HIN DU STOLZE
!!!ARE: Europa, Mitteleuropa, Deutschland, Nord - Deutschland
!!!SCT: Z1156
!!!TXL: @@DE
!!!YEM: Copyright 1995, estate of Helmut Schaffrath.
**kern	**text
*ICvox	*
*M3/4	*
*k[f#]	*
*G:	*
!LO:TX:a:t=Norddeutſchland.	!
{4d	Wo
=1	=1
(>4g	gehſt
4b/)	.
4dd	du
=2	=2
(4ee	hin,
4dd)	.
4cc	du
=3	=3
2.dd	Stol-
=4	=4
4b/	-ʒe?
4r}	.
{4dd	was
=5	=5
(4dd	hab'
4cc)	.
4cc	ich
=6	=6
2dd	dir
4dd	ge-
=7	=7
2b/}	-than?
{4d	daß
=8	=8
(>4g	du
4b)	.
4dd	an
=9	=9
(4ee	mir
4dd)	.
4cc	vor-
=10	=10
2.dd	-bei
=11	=11
4b/	gehſt,
4r}	.
{4dd	und
=12	=12
(4dd	ſiehſt
4cc)	.
4cc	mich
=13	=13
2dd	gar
4dd	nicht
=14	=14
2b/}	an?
{4b/	ſeh'
=15	=15
2a	ich
4a	dich
=16	=16
2dd	kom-
4cc	-men,
=17	=17
2b/	grüß'
4b/	ich
=18	=18
(4b/	dich,
4a)}	.
{4g	du
=19	=19
2a	gehſt
4a	vor-
=20	=20
2dd	-bei
4cc	und
=21	=21
2b/	dankſt
4ee	mir
=22	=22
2dd;}	nicht;
{4d	es
=23	=23
(>4g	wird
4b/)	.
4dd	die
=24	=24
(4ee	Stun-
4dd)	.
4cc	-de
=25	=25
2.dd	kom-
=26	=26
4b/	-men,
4r}	.
{4dd	wo
=27	=27
(4dd	du
4cc)	.
4cc	noch
=28	=28
2dd	denkſt
4dd	an
=29	=29
2b/}	mich!
==	==
!!!AGN: Liebes - Lied
!!!ONB: ESAC (Essen Associative Code) Database: ZUCCAL
!!!AMT: simple triple
!!!AIN: vox
!!!EED: Helmut Schaffrath
!!!EEV: 1.0
!!!RDF**kern: >= above
!!!GTL: V. Lieder der Minne.
!!!URL-scan: https://www.digitale-sammlungen.de/de/view/bsb11160573?page=338
!!!ENC: Anna Maria Matuszewska
!!!EEV: 2025/02/05
*-	*-
